public/assets/imgs/projetos/icons/bike.svg

<svg fill="none" height="37" viewBox="0 0 53 37" width="53" xmlns="http://www.w3.org/2000/svg"><path clip-rule="evenodd" d="m45.3952 3.20304 1.6163-1.74057c.327-.35221.3066-.902865-.0456-1.229921-.3522-.327055-.9029-.3066598-1.2299.045552l-1.358 1.462469h-7.0801c-.4806 0-.8703.38964-.8703.87029v4.97305h-17.5141l-1.9977-4.7244h2.3548c.4806 0 .8703-.38964.8703-.87028 0-.48065-.3897-.87029-.8703-.87029h-7.3353c-.4806 0-.8703.38964-.8703.87029 0 .48064.3897.87028.8703.87028h3.0908l1.9996 4.72901-3.5567 8.64598c-.958-.2895-1.9738-.4451-3.0256-.4451-5.76773 0-10.4434 4.6757-10.4434 10.4435 0 5.7677 4.67567 10.4434 10.4434 10.4434 5.3898 0 9.8257-4.0828 10.3842-9.3245h1.5015c.4552 1.2336 1.6413 2.1135 3.0335 2.1135 1.7852 0 3.2325-1.4472 3.2325-3.2324 0-1.1383-.5885-2.1389-1.4769-2.7146l9.7773-13.073 1.4682 5.9136c-4.0931 1.4133-7.0335 5.2999-7.0335 9.874 0 5.7677 4.6757 10.4434 10.4434 10.4434 5.7678 0 10.4435-4.6757 10.4435-10.4434 0-5.7678-4.6757-10.4435-10.4435-10.4435-.5866 0-1.1621.0484-1.7227.1415l-1.8827-7.58313v-4.86663h4.973v2.3972c-.0381.03517-.1039.08571-.2122.14266-.2848.14972-.8299.31965-1.777.31965-.4806 0-.8703.38964-.8703.87028 0 .48065.3897.87029.8703.87029 1.1416 0 1.9848-.20304 2.5869-.51957.5791-.30441 1.0063-.7593 1.1222-1.28087.0138-.06198.0207-.12529.0207-.18879v-2.61977c.1956-.02823.3772-.12252.5134-.26918zm.523-2.755742-1.4318 1.541932h-7.1885c-.3004 0-.551.21308-.609.49635.058-.28322.3086-.49624.609-.49624h6.7136.4749l1.4318-1.541928c.2336-.251581.6269-.266149.8785-.032538.1002.093052.1628.21144.1871.336122-.0242-.124722-.0869-.243156-.1871-.336236-.2516-.23361-.6449-.219043-.8785.032538zm-1.2851 2.785302v2.85951c0-.00005.0001-.00007.0001-.00012zm-7.9568 4.59996h-17.9276l-2.2079-5.22159h-.0001l2.0004 4.73096.2076.49075h17.9276zm4.4757-1.24326c-.3004 0-.551.21308-.609.49635.058-.28321.3086-.49624.609-.49624.9749 0 1.5626-.17466 1.8927-.3482.2221-.11679.3122-.22227.3452-.26896v-.00011c-.033.04669-.1231.15217-.3452.26896-.3301.17354-.9178.3482-1.8927.3482zm-1.2864 9.6271-1.9461-7.83822v-5.14558 5.14569l1.946 7.83821c.6182-.1171 1.256-.1783 1.9081-.1783 5.6304 0 10.1948 4.5644 10.1948 10.1948 0-.0001 0-.0001 0-.0001 0-5.6305-4.5643-10.1948-10.1948-10.1948-.6521 0-1.2899.0612-1.908.1783zm-1.2052.3058c-3.0808.9869-5.5238 3.3993-6.5527 6.4611 1.029-3.0618 3.4719-5.4741 6.5528-6.461zm-11.6915 7.1957c-.0701-.0449-.1422-.0869-.2162-.1259h-.0001c.9478.4999 1.5938 1.495 1.5938 2.641 0-.0001 0-.0001 0-.0001 0-1.0565-.5491-1.9848-1.3775-2.515zm-26.602781.9624c.747771-4.8935 4.974761-8.6421 10.077281-8.6421 1.1062 0 2.1713.1762 3.1687.5021l3.683-8.95299-.0001-.00004-3.6829 8.95293c-.9974-.3259-2.0625-.5021-3.1687-.5021-5.10255 0-9.32956 3.7487-10.077281 8.6422zm11.569181-23.31271c-.3198 0-.5833.2416-.6178.55226.0346-.31061.298-.55214.6178-.55214h3.6676 3.6677c.3433 0 .6216.27831.6216.62163 0-.00004 0-.00007 0-.00011 0-.34332-.2783-.62164-.6216-.62164zm20.8868 24.86531v.0001c0 4.9437 4.0078 8.9515 8.9515 8.9515 4.3259 0 7.935-3.0685 8.7697-7.1476-.8347 4.079-4.4439 7.1475-8.7697 7.1475-4.9437 0-8.9515-4.0078-8.9515-8.9515zm7.3437-8.8074c-.0001 0-.0001 0-.0001 0l2.2112 8.9063c.0031.0123.0058.0246.0081.0369-.0023-.0123-.005-.0247-.008-.037zm-7.095 8.8074c0-3.7562 2.3798-6.9572 5.7144-8.1763l2.1438 8.6346c.1158.4665.5879.7508 1.0543.635.4665-.1159.7508-.5879.635-1.0544l-2.1464-8.6451c.4245-.0637.8592-.0967 1.3017-.0967 4.8065 0 8.7029 3.8964 8.7029 8.7029 0 4.8064-3.8964 8.7028-8.7029 8.7028-4.8064 0-8.7028-3.8964-8.7028-8.7028zm-22.6274-8.7029c.8181 0 1.6094.1128 2.3595.3236l-3.41299 8.2968c-.11043.2685-.07974.5743.08182.8155.16157.2412.43274.3859.72307.3859h8.8802c-.5489 4.2778-4.2043 7.5839-8.6316 7.5839-4.80644 0-8.70283-3.8964-8.70283-8.7028 0-4.8065 3.89639-8.7029 8.70283-8.7029zm2.6941.164-3.51764 8.5511c-.01971.0479-.03313.0975-.04037.1476.00724-.0501.02066-.0997.04038-.1477zm6.1882 9.6578c-.5507 4.4157-4.3175 7.8326-8.8823 7.8326-4.94376 0-8.95148-4.0078-8.95148-8.9515 0 0-.00002 0-.00002.0001 0 4.9437 4.00772 8.9515 8.9515 8.9515 4.5649 0 8.3317-3.417 8.8823-7.8327zm-8.203-1.4919-.0001.0001h8.2647v-.0001zm3.3001-7.3689c2.6317 1.3555 4.4824 4.013 4.7016 7.1202h-7.6306zm.6643-1.6148c3.2621 1.622 5.5563 4.9001 5.7815 8.735h1.3212c.1664-.8538.6685-1.5869 1.3628-2.0569l-5.581-13.69007zm5.5444 8.9837h1.7703v.0001h-1.7703c-.1412-3.925-2.5012-7.2845-5.8634-8.8617v-.0001c3.3622 1.5773 5.7222 4.9367 5.8634 8.8617zm1.8236-.3005c.1894-.821.7176-1.5124 1.4295-1.9191 0 0 0-.0001-.0001-.0001-.0724.0414-.143.0858-.2115.1329-.6044.416-1.0478 1.0488-1.2179 1.7863zm3.0808-2.8316c-.0632.0845-.1088.177-.1373.2728l-.036-.0002c-.0535 0-.1066.0013-.1594.0038-.0083-.0281-.0181-.056-.0294-.0837l-5.5426-13.59602h15.929zm.0754.5314c-.082-.0067-.165-.0102-.2488-.0102-.0415 0-.0829.0009-.1241.0026-.084.0034-.167.0103-.2491.0205v.0002c.1223-.0153.2468-.0232.3733-.0232.0837 0 .1667.0035.2487.0103 0-.0001 0-.0001 0-.0002zm-.6218-.027c-.0019-.0728-.0168-.1464-.0459-.2177l-5.6823-13.93856h.0001l5.6822 13.93846c.0081.0199.0151.04.0211.0602.0153.0522.0234.1051.0248.1576zm.7455-.3555c-.0555.0743-.092.157-.1102.2422.0182-.0851.0547-.1678.1102-.2421l10.3217-13.80086h-.0001zm1.1195 3.3562c0 .8239-.668 1.4919-1.4919 1.4919-.824 0-1.4919-.668-1.4919-1.4919 0-.824.6679-1.492 1.4919-1.492.8239 0 1.4919.668 1.4919 1.492zm.2133.3507c-.1623.7932-.8641 1.3898-1.7052 1.3898-.9613 0-1.7406-.7793-1.7406-1.7405v.0001c0 .9613.7793 1.7405 1.7406 1.7405.8411 0 1.5429-.5967 1.7052-1.3899z" fill="#000" fill-rule="evenodd"/></svg>

<svg width="53" height="37" viewBox="0 0 53 37" fill="none" xmlns="http://www.w3.org/2000/svg">
<path fill-rule="evenodd" clip-rule="evenodd" d="M45.3952 3.20304L47.0115 1.46247C47.3385 1.11026 47.3181 0.559605 46.9659 0.232549C46.6137 -0.094506 46.063 -0.0741108 45.736 0.278101L44.378 1.74057H37.2979C36.8173 1.74057 36.4276 2.13021 36.4276 2.61086V7.58391H18.9135L16.9158 2.85951H19.2706C19.7512 2.85951 20.1409 2.46987 20.1409 1.98923C20.1409 1.50858 19.7512 1.11894 19.2706 1.11894H11.9353C11.4547 1.11894 11.065 1.50858 11.065 1.98923C11.065 2.46987 11.4547 2.85951 11.9353 2.85951H15.0261L17.0257 7.58852L13.469 16.2345C12.511 15.945 11.4952 15.7894 10.4434 15.7894C4.67567 15.7894 0 20.4651 0 26.2329C0 32.0006 4.67567 36.6763 10.4434 36.6763C15.8332 36.6763 20.2691 32.5935 20.8276 27.3518H22.3291C22.7843 28.5854 23.9704 29.4653 25.3626 29.4653C27.1478 29.4653 28.5951 28.0181 28.5951 26.2329C28.5951 25.0946 28.0066 24.094 27.1182 23.5183L36.8955 10.4453L38.3637 16.3589C34.2706 17.7722 31.3302 21.6588 31.3302 26.2329C31.3302 32.0006 36.0059 36.6763 41.7736 36.6763C47.5414 36.6763 52.2171 32.0006 52.2171 26.2329C52.2171 20.4651 47.5414 15.7894 41.7736 15.7894C41.187 15.7894 40.6115 15.8378 40.0509 15.9309L38.1682 8.34777V3.48114H43.1412V5.87834C43.1031 5.91351 43.0373 5.96405 42.929 6.021C42.6442 6.17072 42.0991 6.34065 41.152 6.34065C40.6714 6.34065 40.2817 6.73029 40.2817 7.21093C40.2817 7.69158 40.6714 8.08122 41.152 8.08122C42.2936 8.08122 43.1368 7.87818 43.7389 7.56165C44.318 7.25724 44.7452 6.80235 44.8611 6.28078C44.8749 6.2188 44.8818 6.15549 44.8818 6.09199V3.47222C45.0774 3.44399 45.259 3.3497 45.3952 3.20304ZM45.9182 0.447298L44.4864 1.98923H37.2979C36.9975 1.98923 36.7469 2.20231 36.6889 2.48558C36.7469 2.20236 36.9975 1.98934 37.2979 1.98934H44.0115H44.4864L45.9182 0.447412C46.1518 0.195831 46.5451 0.181263 46.7967 0.414874C46.8969 0.507926 46.9595 0.626314 46.9838 0.750996C46.9596 0.626274 46.8969 0.50784 46.7967 0.41476C46.5451 0.18115 46.1518 0.195717 45.9182 0.447298ZM44.6331 3.2326V6.09211C44.6331 6.09206 44.6332 6.09204 44.6332 6.09199L44.6331 3.2326ZM36.6763 7.83256H18.7487L16.5408 2.61097H16.5407L18.5411 7.34193L18.7487 7.83268H36.6763L36.6763 7.83256ZM41.152 6.5893C40.8516 6.5893 40.601 6.80238 40.543 7.08565C40.601 6.80244 40.8516 6.58941 41.152 6.58941C42.1269 6.58941 42.7146 6.41475 43.0447 6.24121C43.2668 6.12442 43.3569 6.01894 43.3899 5.97225L43.3899 5.97214C43.3569 6.01883 43.2668 6.12431 43.0447 6.2411C42.7146 6.41464 42.1269 6.5893 41.152 6.5893ZM39.8656 16.2164L37.9195 8.37818L37.9195 3.2326V8.37829L39.8655 16.2165C40.4837 16.0994 41.1215 16.0382 41.7736 16.0382C47.404 16.0382 51.9684 20.6026 51.9684 26.233C51.9684 26.2329 51.9684 26.2329 51.9684 26.2329C51.9684 20.6024 47.4041 16.0381 41.7736 16.0381C41.1215 16.0381 40.4837 16.0993 39.8656 16.2164ZM38.6604 16.5222C35.5796 17.5091 33.1366 19.9215 32.1077 22.9833C33.1367 19.9215 35.5796 17.5092 38.6605 16.5223L38.6604 16.5222ZM26.9689 23.7179C26.8988 23.673 26.8267 23.631 26.7527 23.592L26.7526 23.592C27.7004 24.0919 28.3464 25.087 28.3464 26.233C28.3464 26.233 28.3464 26.233 28.3464 26.233C28.3464 26.2329 28.3464 26.2329 28.3464 26.2329C28.3464 25.1764 27.7973 24.2481 26.9689 23.7179ZM0.366119 24.6803C1.11389 19.7868 5.34088 16.0382 10.4434 16.0382C11.5496 16.0382 12.6147 16.2144 13.6121 16.5403L17.2951 7.58731L17.295 7.58727L13.6121 16.5402C12.6147 16.2143 11.5496 16.0381 10.4434 16.0381C5.34085 16.0381 1.11384 19.7868 0.366119 24.6803ZM11.9353 1.36759C11.6155 1.36759 11.352 1.60919 11.3175 1.91985C11.3521 1.60924 11.6155 1.36771 11.9353 1.36771H15.6029H19.2706C19.6139 1.36771 19.8922 1.64602 19.8922 1.98934C19.8922 1.9893 19.8922 1.98927 19.8922 1.98923C19.8922 1.64591 19.6139 1.36759 19.2706 1.36759H11.9353ZM32.8221 26.2329C32.8221 26.2329 32.8221 26.2329 32.8221 26.233C32.8221 31.1767 36.8299 35.1845 41.7736 35.1845C46.0995 35.1845 49.7086 32.116 50.5433 28.0369C49.7086 32.1159 46.0994 35.1844 41.7736 35.1844C36.8299 35.1844 32.8221 31.1766 32.8221 26.2329ZM40.1658 17.4255C40.1657 17.4255 40.1657 17.4255 40.1657 17.4255L42.3769 26.3318C42.38 26.3441 42.3827 26.3564 42.385 26.3687C42.3827 26.3564 42.38 26.344 42.377 26.3317L40.1658 17.4255ZM33.0708 26.2329C33.0708 22.4767 35.4506 19.2757 38.7852 18.0566L40.929 26.6912C41.0448 27.1577 41.5169 27.442 41.9833 27.3262C42.4498 27.2103 42.7341 26.7383 42.6183 26.2718L40.4719 17.6267C40.8964 17.563 41.3311 17.53 41.7736 17.53C46.5801 17.53 50.4765 21.4264 50.4765 26.2329C50.4765 31.0393 46.5801 34.9357 41.7736 34.9357C36.9672 34.9357 33.0708 31.0393 33.0708 26.2329ZM10.4434 17.53C11.2615 17.53 12.0528 17.6428 12.8029 17.8536L9.38991 26.1504C9.27948 26.4189 9.31017 26.7247 9.47173 26.9659C9.6333 27.2071 9.90447 27.3518 10.1948 27.3518H19.075C18.5261 31.6296 14.8707 34.9357 10.4434 34.9357C5.63696 34.9357 1.74057 31.0393 1.74057 26.2329C1.74057 21.4264 5.63696 17.53 10.4434 17.53ZM13.1375 17.694C13.1375 17.694 13.1375 17.694 13.1375 17.694L9.61986 26.2451C9.60015 26.293 9.58673 26.3426 9.57949 26.3927C9.58673 26.3426 9.60015 26.293 9.61987 26.245L13.1375 17.694ZM19.3257 27.3518C18.775 31.7675 15.0082 35.1844 10.4434 35.1844C5.49964 35.1844 1.49192 31.1766 1.49192 26.2329C1.49192 26.2329 1.4919 26.2329 1.4919 26.233C1.4919 31.1767 5.49962 35.1845 10.4434 35.1845C15.0083 35.1845 18.7751 31.7675 19.3257 27.3518ZM11.1227 25.8599L11.1226 25.86H19.3873C19.3873 25.86 19.3873 25.8599 19.3873 25.8599H11.1227ZM14.4228 18.491C17.0545 19.8465 18.9052 22.504 19.1244 25.6112H11.4938L14.4228 18.491ZM15.0871 16.8762C18.3492 18.4982 20.6434 21.7763 20.8686 25.6112H22.1898C22.3562 24.7574 22.8583 24.0243 23.5526 23.5543L17.9716 9.86423L15.0871 16.8762ZM20.6315 25.8599H22.4018C22.4018 25.8599 22.4018 25.86 22.4018 25.86H20.6315C20.4903 21.935 18.1303 18.5755 14.7681 16.9983L14.7681 16.9982C18.1303 18.5755 20.4903 21.9349 20.6315 25.8599ZM22.4551 25.5594C22.6445 24.7384 23.1727 24.047 23.8846 23.6403C23.8846 23.6403 23.8846 23.6402 23.8845 23.6402C23.8121 23.6816 23.7415 23.726 23.673 23.7731C23.0686 24.1891 22.6252 24.8219 22.4551 25.5594ZM25.5359 22.7278C25.4727 22.8123 25.4271 22.9048 25.3986 23.0006L25.3626 23.0004C25.3091 23.0004 25.256 23.0017 25.2032 23.0042C25.1949 22.9761 25.1851 22.9482 25.1738 22.9205L19.6312 9.32448H35.5602L25.5359 22.7278ZM25.6113 23.2592C25.5293 23.2525 25.4463 23.249 25.3625 23.249C25.321 23.249 25.2796 23.2499 25.2384 23.2516C25.1544 23.255 25.0714 23.2619 24.9893 23.2721C24.9893 23.2722 24.9893 23.2722 24.9893 23.2723C25.1116 23.257 25.2361 23.2491 25.3626 23.2491C25.4463 23.2491 25.5293 23.2526 25.6113 23.2594C25.6113 23.2593 25.6113 23.2593 25.6113 23.2592ZM24.9895 23.2322C24.9876 23.1594 24.9727 23.0858 24.9436 23.0145L19.2613 9.07594H19.2614L24.9436 23.0144C24.9517 23.0343 24.9587 23.0544 24.9647 23.0746C24.98 23.1268 24.9881 23.1797 24.9895 23.2322ZM25.735 22.8767C25.6795 22.951 25.643 23.0337 25.6248 23.1189C25.643 23.0338 25.6795 22.9511 25.735 22.8768L36.0567 9.07594H36.0566L25.735 22.8767ZM26.8545 26.2329C26.8545 27.0568 26.1865 27.7248 25.3626 27.7248C24.5386 27.7248 23.8707 27.0568 23.8707 26.2329C23.8707 25.4089 24.5386 24.7409 25.3626 24.7409C26.1865 24.7409 26.8545 25.4089 26.8545 26.2329ZM27.0678 26.5836C26.9055 27.3768 26.2037 27.9734 25.3626 27.9734C24.4013 27.9734 23.622 27.1941 23.622 26.2329C23.622 26.2329 23.622 26.2329 23.622 26.233C23.622 27.1943 24.4013 27.9735 25.3626 27.9735C26.2037 27.9735 26.9055 27.3768 27.0678 26.5836Z" fill="black"/>
</svg>
